assets/images/nutrikatorbig.svg

<svg fill="none" height="559" viewBox="0 0 415 559" width="415" xmlns="http://www.w3.org/2000/svg" xmlns:xlink="http://www.w3.org/1999/xlink"><clipPath id="a"><path d="m0 0h415v559h-415z"/></clipPath><g clip-path="url(#a)" stroke="#fff" stroke-width="6"><path d="m16.9688 96.4728c0-53.9583 56.0517-89.50009 104.6672-66.4137l305.693 145.1679c25.596 12.155 41.92 38.011 41.92 66.414 0 53.958-56.052 89.5-104.667 66.413l-305.693-145.168c-25.5963-12.155-41.9202-38.01-41.9202-66.4132z"/><path d="m3 303.397c0-53.947 56.2039-89.508 104.972-66.413l306.539 145.168c25.672 12.157 42.039 38.014 42.039 66.413 0 53.946-56.204 89.507-104.972 66.412l-306.5398-145.168c-25.6715-12.157-42.0382-38.014-42.0382-66.412z"/><path d="m334.336 51.6295c0-39.0076 31.622-70.6295 70.629-70.6295 39.008 0 70.63 31.6219 70.63 70.6295s-31.622 70.6295-70.63 70.6295c-39.007 0-70.629-31.6219-70.629-70.6295z"/><path d="m13.1523 507.371c0-39.008 31.6219-70.63 70.6295-70.63 39.0072 0 70.6292 31.622 70.6292 70.63 0 39.007-31.622 70.629-70.6292 70.629-39.0076 0-70.6295-31.622-70.6295-70.629z"/></g></svg>

<svg width="415" height="559" viewBox="0 0 415 559" fill="none" xmlns="http://www.w3.org/2000/svg">
<g clip-path="url(#clip0_22_16)">
<path d="M16.9688 96.4728C16.9688 42.5145 73.0205 6.97271 121.636 30.0591L427.329 175.227C452.925 187.382 469.249 213.238 469.249 241.641C469.249 295.599 413.197 331.141 364.582 308.054L58.889 162.886C33.2927 150.731 16.9688 124.876 16.9688 96.4728Z" stroke="white" stroke-width="6"/>
<path d="M3 303.397C3 249.45 59.2039 213.889 107.972 236.984L414.511 382.152C440.183 394.309 456.55 420.166 456.55 448.565C456.55 502.511 400.346 538.072 351.578 514.977L45.0382 369.809C19.3667 357.652 3 331.795 3 303.397Z" stroke="white" stroke-width="6"/>
<path d="M334.336 51.6295C334.336 12.6219 365.958 -19 404.965 -19C443.973 -19 475.595 12.6219 475.595 51.6295C475.595 90.6371 443.973 122.259 404.965 122.259C365.958 122.259 334.336 90.6371 334.336 51.6295Z" stroke="white" stroke-width="6"/>
<path d="M13.1523 507.371C13.1523 468.363 44.7742 436.741 83.7818 436.741C122.789 436.741 154.411 468.363 154.411 507.371C154.411 546.378 122.789 578 83.7818 578C44.7742 578 13.1523 546.378 13.1523 507.371Z" stroke="white" stroke-width="6"/>
</g>
<defs>
<clipPath id="clip0_22_16">
<rect width="415" height="559" fill="white"/>
</clipPath>
</defs>
</svg>
